Catalina-light/actions/16/node-join-segment.svg

<svg xmlns="http://www.w3.org/2000/svg" width="16" height="16" viewBox="0 0 16 16">
 <defs>
  <style id="current-color-scheme" type="text/css">
   .ColorScheme-Text { color:#5c616c; } .ColorScheme-Highlight { color:#5294e2; }
  </style>
 </defs>
 <path style="fill:currentColor" class="ColorScheme-Text" d="M 1 0 L 1 2.0019531 L 0.50390625 2.0019531 C -0.16146375 2.0019531 -0.16146375 3 0.50390625 3 L 1 3 L 1 5 L 5 5 L 5 3 L 5 2 L 5 0 L 1 0 z M 10 0 L 10 2 L 10 3 L 10 5 L 14 5 L 14 3 L 14.507812 3 C 15.183813 3.0096 15.183813 1.9904 14.507812 2 L 14 2 L 14 0 L 10 0 z M 7 5.0273438 L 7 7.0273438 L 5 7.0273438 L 7.5 10.027344 L 10 7.0273438 L 8 7.0273438 L 8 5.0273438 L 7 5.0273438 z M 1 11 L 1 13.001953 L 0.50390625 13.001953 C -0.16145375 13.001953 -0.16145375 14 0.50390625 14 L 1 14 L 1 16 L 5 16 L 5 14 L 10 14 L 10 16 L 14 16 L 14 14 L 14.507812 14 C 15.183972 14.0096 15.183973 12.9904 14.507812 13 L 14 13 L 14 11 L 10 11 L 10 13 L 5 13 L 5 11 L 1 11 z"/>
</svg>

<svg width="16" height="16" viewBox="0 0 16 16" xmlns="http://www.w3.org/2000/svg">
<defs>
<style id="current-color-scheme" type="text/css">.ColorScheme-Text { color:#5c616c; } .ColorScheme-Highlight { color:#5294e2; }</style>
</defs>
<path class="ColorScheme-Text" d="m1 0v2.002h-0.49609c-0.66537 0-0.66537 0.99805 0 0.99805h0.49609v2h4v-2-1-2h-4zm9 0v2 1 2h4v-2h0.50781c0.676 0.0096 0.676-1.0096 0-1h-0.50781v-2h-4zm-3 5.0273v2h-2l2.5 3 2.5-3h-2v-2h-1zm-6 5.9727v2.002h-0.49609c-0.66536 0-0.66536 0.99805 0 0.99805h0.49609v2h4v-2h5v2h4v-2h0.50781c0.67616 0.0096 0.67616-1.0096 0-1h-0.50781v-2h-4v2h-5v-2h-4z" fill="currentColor"/>
</svg>
